X: 374
T: Barlow Knife
C:Old Time
B: jims roots
M:4/4
L:1/8
Q: 1/4=100
K:G
V:1 
%Q:470
|: "G"gdBd "D"fdAd | "C"efge "G"d2 ef | gagd "D"fdgf | "C"e2 d2 "G"d4 :|
|: "C"e2dc "G"Bcd2 | "C"eded "G"G2 Bd | "C"eged "G"BAGE | "D"DEGA "G"G4 :|
|: "D"A2 Ad "G"BAGB | "D"AGAd "G"B2 dB | "D"A2 Ad "G"BAGB | "D"A2 G2 "G"G4 :|
"D"A2 Ad "G"BAGB | "D"AFAd "G"BGDB | "D"A2 Ad "G"BAGB | "D"A2 G2 "G"G4 |]
% abcbook-tune_id 6298c24581c3b414bc6e494b


% abcbook-boost 0
% abcbook-tablature 
% abcbook-transpose 
% abcbook-lastupdated 1654178373252
% abcbook-soundfonts 
% abcbook-repeats 1


